X: 1
T:Long Er Onie Old Man
B:Skene MS (Lute tablature), c1640
O:Scottish
Z:Nigel Gatherer
L:1/8
M:2/4
K:G
ga ge|=fg a^f|ga gd|B2 d2:|ed Bd|=f3 A|
GG d2|GG d2|ed Bd|=f3 a|GG dG|AB d|]
